X: 422
T: The Morning Star
N:"Moderate" "collected by Kerwin"
N:Irish title: an maidineog
B:O'Neill's 422
Z:Transcribed by henrik.norbeck@mailbox.swipnet.se
M:3/4
L:1/8
K:G
(3GAB | c2 Bc dB | AB GE (3DGB | (A3/2B/4A/4) G2 G2 | G4 (3def |
g2 gf ed | e2 G2 Bc | d2 dg fe | {e}d4 (3def |
g2 gf ed | e2 G2 Bc | d2 eg (3fed | g4 (3edc |
c2 B2 dB | AB GE (3DGB | (A3/2B/4A/4) G2 G2 | G4 ||


